X: 139
T: Mazourka No. 3.	 Op. 17
C: Fryderyk Chopin
%%abc-version 2.0
%%abcx-abcm2ps-target-version 5.9.1 (29 Sep 2008)
%%abc-creator hum2abc beta
%%abcx-conversion-date 2021/10/03 11:23:42
%%abc-edited-by Mateusz Mrugas
%%abc-edited-by Leszek Kubiak
%%abc-edited-by Jacek Iwaszko
%%abcx-initial-encoding-date 2017-12-20
%%humdrum-veritas 2579096985
%%humdrum-veritas-data 3638654280
%%linebreak <none>
%%barnumbers 0
L: 1/4
M: 3/4
N: Derived from 017-1a-Sm-003.krn
P: 4 Mazourkas
Q: "M.M. [quarter] = 144." 1/4=144
%%staves {1 2}
V: 1 clef=treble
V: 2 clef=bass
K: Ab
[V:1] !accent!c- [I:setbarnb 1]| 
[V:2] z | 
[V:1] c/>B/ A/B/c | 
[V:2] x[E2C2] & !accent![_FDG,]A,E, | 
[V:1] c/>B/ A/=f/e [I:setbarnb 3]| 
[V:2] x[E2C2] & !accent![_FDG,]A,E, | 
[V:1] c/>B/ A/B/c | 
[V:2] x[E2C2] & !accent![_FDG,]A,E, | 
[V:1] !accent!E3 | 
[V:2] D3 & A,/>G,/F,/G,/E, | 
[V:1] c/>B/ A/B/!accent!c- | 
[V:2] x[E2C2] & [_FDG,]A,E, | 
[V:1] x!accent!A2 & c/>B/ A/g/=f | 
[V:2] x[E2-A,2] & [_FDG,]C_C | 
[V:1] x!accent!A2 & [BG]A/>g/f | 
[V:2] E=D2 & [B,E,]_CE, | 
[V:1] !accent!A2x & A/>g/f[BG] | 
[V:2] [=D2_C2][EB,] & zE,2 | 
[V:1] c/>B/ A/B/!accent!c- | 
[V:2] x[E2C2] & [_FDG,]A,E, | 
[V:1] c/>B/ A/f/!accent!e | 
[V:2] x[E2C2] & [_FDG,]A,E, | 
[V:1] c/>B/ (3:2:7G/A/B/ =B/!wedge!d/z//c// | 
[V:2] x[E2C2] & [_FDG,]A,E, | 
[V:1] {/c}!accent!E3 | 
[V:2] D3 & A,/>G,/F,/G,/E, | 
[V:1] c/z//.B// A/B/c- | 
[V:2] x[E2C2] & [_FDG,]A,E, | 
[V:1] !accent!c/-c/8B/8c/8B/8 A/z//a//!accent!f | 
[V:2] [_FDG,][ECA,][K:clef=treble][_cA=D] | 
[V:1] x2c3//B// & B/>c/dG | 
[V:2] x2[K:clef=bass]E, & [GE][FB,]E3//D// | 
[V:1] d/>c/A & A2 ]|:  
[V:2] F/>E/C & A,2 ]|:  
[V:1] F [I:setbarnb 17]| 
[V:2] z | 
[V:1] .dB/>d/!accent![fF] | 
[V:2] z.[DF,B,,].[DF,B,,] | 
[V:1] =e/>c/ _e/d/!accent![bB] | 
[V:2] z.[CF,B,,].[DF,B,,] | 
[V:1] {/de}dB/d/!accent![f-F] | 
[V:2] z.[DF,B,,].[DF,B,,] | 
[V:1] f2!accent!b- & =e/c/_e/d/B | 
[V:2] z.[CF,B,,].[DF,B,,] | 
[V:1] b2!accent!b- & =e/c/_e/d/B | 
[V:2] z.[CF,B,,].[DF,B,,] | 
[V:1] b2!accent!b & =e/c/_e/d/B | 
[V:2] z.[CF,B,,].[DF,B,,] | 
[V:1] d2_c | 
[V:2] z[_FB,G,][F_CA,] | 
[V:1] d_cB | 
[V:2] [_FB,G,][F_CA,][FDG,]- | 
[V:1] !accent!=c/>B/ A/B/!accent!c- | 
[V:2] x[E2C2] & [FDG,]A,E, | 
[V:1] c/>B/ A/z//f//e | 
[V:2] x[E2C2] & [_FDG,]A,E, | 
[V:1] c/>B/ A/B/(3:2:4=B/d/z//c// | 
[V:2] x[E2C2] & [_FDG,]A,E, | 
[V:1] {/c}!accent!E2x | 
[V:2] D2x & A,/>G,/F,/G,/E, | 
[V:1] !wedge!c/z//B// A/B/!accent!c- | 
[V:2] x[E2C2] & [_FDG,]A,E, | 
[V:1] xA2 & c/>B/ A/g/f | 
[V:2] x[E2-A,2] & [_FDG,]C_C | 
[V:1] x!accent!A2 & [BG]A/>g/f | 
[V:2] E=D2 & [B,E,]_CE, | 
[V:1] !accent!A2x & A/>g/f[BG] | 
[V:2] [=D2_C2][EB,] & zE,2 | 
[V:1] c/>B/ A/B/c- | 
[V:2] x[E2C2] & [_FDG,]A,E, | 
[V:1] c/B/A/f/e | 
[V:2] x[E2C2] & [_FDG,]A,E, | 
[V:1] (3:2:10c/_c/B/ G/A/B/ =B/!wedge!d/z//c// | 
[V:2] x[E2C2] & [_FDG,]A,E, | 
[V:1] {/c}E3 | 
[V:2] D3 & A,/>G,/F,/G,/E, | 
[V:1] !wedge!c/z//B// A/B/c- | 
[V:2] x[E2C2] & [_FDG,]A,E, | 
[V:1] !accent!c/c/8B/8c/8B/8 A/z//a//!accent!f | 
[V:2] [_FDG,][ECA,][K:clef=treble][_cA=D] | 
[V:1] x2c3//B// & B/>c/dG |[1 
[V:2] x2[K:clef=bass]E, & [GE][FB,]E3//D// | 
[V:1] d/>c/A & Ax :|][2 
[V:2] F/>E/C & A,2 :|]  
[V:1] d/>c/A2- | 
[V:2] F/>E/C!accent!_C- & A,3 | 
[V:1]  [K:E] G/>A/F3/B/ | 
[V:2]  [K:E] [B,B,,][A,D,B,,][A,D,B,,] | 
[V:1] G/z//B,//EG | 
[V:2] .E,,[G,E,][B,-G,-E,] | 
[V:1] B/>c/^A3/d/ | 
[V:2] [B,G,D,][D^^F,D,][CF,D,] | 
[V:1] B/z//D//GB | 
[V:2] .G,,[B,G,][DB,G,] | 
[V:1] d/>e/c3/f/ | 
[V:2] z[EB,=G,][E^A,F,] | 
[V:1] d/B<Ac/ | 
[V:2] .B,,[DA,F,][DA,F,] | 
[V:1] B/G/F/A/d/B/ | 
[V:2] B,,[DA,F,][DA,F,] | 
[V:1] A/c/B/G/F/A/ | 
[V:2] B,,[DA,F,][DA,F,] | 
[V:1] G/A<FB/ | 
[V:2] z[A,D,B,,][A,D,B,,] | 
[V:1] G/z//B,//EG | 
[V:2] .E,,[G,E,][B,-G,-E,] | 
[V:1] B/>c/^A3/d/ | 
[V:2] [B,G,D,][D^^F,D,][CF,D,] | 
[V:1] B/z//D//GB | 
[V:2] .G,,[B,G,][DB,G,] | 
[V:1] d/>e/c3/f/ | 
[V:2] z[EB,=G,][E^A,F,] | 
[V:1] d/B<Ac/ | 
[V:2] .B,,[DA,F,][DA,F,] | 
[V:1] B/G/FA | 
[V:2] z[A,D,B,,][A,D,B,,] | 
[V:1] G/z//B,//E ]|:  
[V:2] E,,[G,E,] ]|:  
[V:1] !accent!G- [I:setbarnb 58]| 
[V:2] z | 
[V:1] (3.G/.^A/.B/.c(3.d/.e/.f/ | 
[V:2] [EB,F,][EB,F,][E^A,F,] | 
[V:1] (3.g/.^a/.b/.c'.d' | 
[V:2] [ECF,][E^A,F,][DB,F,] | 
[V:1] (3.G/.^A/.B/ .c/>.d/ (3.e/.f/.g/ | 
[V:2] [EB,F,][EB,F,][E^A,F,] | 
[V:1] (3.^a/.b/.c'/!accent!d'2 | 
[V:2] !accent![EF,][DB,F,][DB,F,] | 
[V:1] (3.G/.^A/.B/.c(3.d/.e/.f/ | 
[V:2] [EB,F,][EB,F,][E^A,F,] | 
[V:1] (3.g/.^a/.b/.c'.d' | 
[V:2] [ECF,][E^A,F,][DB,F,] | 
[V:1] (3.G/.^A/.B/ .c/>.d/ (3.e/.f/.g/ | 
[V:2] [EB,F,][EB,F,][E^A,F,] | 
[V:1] (3.^a/.b/.c'/.d'!accent!B | 
[V:2] [EF,][DB,]z | 
[V:1] G/>A/F3/B/ | 
[V:2] z[A,D,B,,][A,D,B,,] | 
[V:1] !wedge!G/z//B,//E!accent!G | 
[V:2] .E,,[G,E,][B,-G,-E,] | 
[V:1] B/>c/^A3/d/ | 
[V:2] [B,G,D,][D^^F,D,][CF,D,] | 
[V:1] !wedge!B/z//D//.G.!accent!B | 
[V:2] .G,,[B,G,][DB,G,] | 
[V:1] d/>e/c3/f/ | 
[V:2] z[EB,=G,][E^A,F,] | 
[V:1] d/B/Ac | 
[V:2] .B,,[DA,F,][DA,F,] | 
[V:1] B/G/F/A/d/B/ | 
[V:2] .B,,[DA,F,][DA,F,] | 
[V:1] A/c/B/G/F/A/ | 
[V:2] .B,,[DA,F,][DA,F,] | 
[V:1] G/A<FB/ | 
[V:2] z[A,D,B,,][A,D,B,,] | 
[V:1] G/z//B,//EG | 
[V:2] .E,,[G,E,]!accent![B,-G,-E,] | 
[V:1] B/>c/^A3/d/ | 
[V:2] [B,G,D,][D^^F,D,][CF,D,] | 
[V:1] B/z//D//G!accent!B | 
[V:2] .G,,[B,G,][DB,G,] | 
[V:1] d/>e/c3/f/ | 
[V:2] z[EB,=G,][E^A,F,] | 
[V:1] d/B<Ac/ | 
[V:2] B,,[DA,F,][DA,F,] | 
[V:1] B/G<FA/ |[1 
[V:2] z[A,D,B,,][A,D,B,,] | 
[V:1] G/z//B,//E :|] 
[V:2] E,,[G,E,] :|]  
[V:1] G/z//B,//!accent!!fermata!E2 | 
[V:2] E,,[G,E,]!fermata!E- | 
[V:1]  [K:Ab] c/>B/ A/B/c |]  
[V:2]  [K:Ab] x[E2C2] & !accent![FDG,]A,E, |]
